X:1
T:If Tonight Should End the World
T:James B. Pennington, before 1916
T:If Tonight Should End the World
T:Public Domain
T:Public Domain
T:Public Domain
T:Public Domain
C:James B. Pennington, before 1916
Z:Public Domain
%%score ( 1 2 ) ( 3 4 )
L:1/8
M:4/4
K:Bb
V:1 treble 
V:2 treble 
V:3 bass 
V:4 bass 
V:1
 [Fd][Ec] | [DB]>[DB] [DB]>[DB] [Ec]<[DB] [EB]>[DF] | [DF]>[B,D] [DF]>[DF] [DB]2 [FB]>[Fc] | %3
w: 1.~In God’s|Word it is re- cord- ed That this|world will not en- dure; Then while|
w: 2.~O’er this|quest- ion do you pon- der, As the|days pass swift- ly by? Have you|
w: 3.~See the|hands once torn and bleed- ing On the|cross of Cal- va- ry, Reach- ing|
 [Fd]>[Fd] [Gd]>[Gd] [Gd]<[Gd] [FB]>[Fc] | [Fd][Fd][Fc][=Ed] [Fc]2 [Fd]>[_Ec] | %5
w: time is yet af- ford- ed Make your|hope of Hea- ven sure; For the|
w: gained an in- terest yon- der, Where the|soul will ne- ver die? If the|
w: out with gen- tle plead- ing; Oh, poor|sin- ner, ’tis for thee; Come, ac-|
 [DB]>[DB] [DB]>[DB] [Ec]<[DB] [EB]>[EG] | [DF]>[B,D] [DF]>[EG] [DB]2 [FB]>[Fc] | %7
w: stars, be- fore the morn- ing, From their|or- bits may be hurled, And the|
w: last trump should be sound- ed, And the|blood stained ban- ner furled, Would it|
w: cept this great sal- va- tion, Ere to|judg- ment you are hurled; Slight you|
 [Fd]>[Fd] [Gd]>[Gd] [Gd]>[Gd] [Fd]>[Ff] | [Fd]>[DB] [Ec][DB] [DB]2 ||"^Refrain" [DF]>[DF] | %10
w: moon may send a warn- ing That to-|night will end the world.||
w: bring you grief un- bound- ed If to-|night should end the world?|If to-|
w: not this in- vi- ta- tion, For to-|night may end the world.||
 (D2 E2 [DF])F[EG][EA] | (DDEE D2) d>d | (F2 G2 [Fd])[DB] [Fc]>[=Ed] | [Fc]6 F>[EF] | %14
w: ||||
w: night * * should end the|If * * * * to- night|end * * the world, Would|soul a- drift|
w: ||||
 [DF]>[DF] [DF]>[DF] [EG]<[DF] [Fd]>[Ec] | [DB]>[DB] [EB]>[EB] [EB]<[DB] [Fd]>[Fd] | %16
w: ||
w: * dri- ven? Or would you set sail|for Hea- ven, If to- night should end|
w: ||
 (F2 G2 [Fd])[DB] [Ec]>[DB] | [DB]6 |] %18
w: ||
w: the * * world? * *||
w: ||
V:2
 x2 | x8 | x8 | x8 | x8 | x8 | x8 | x8 | x6 || x2 | F4- F x3 | B6 x2 | d4- x4 | x6 F3/2 x/ | x8 | %15
w: |||||||||||||||
w: ||||||||||world, *|should|your|be||
 x8 | d4- x4 | x6 |] %18
w: |||
w: |||
V:3
 [B,,B,][B,,F,] | [B,,F,]>[B,,F,] [B,,F,]>[B,,F,] [B,,F,]<[B,,F,] [E,G,]>[E,B,] | %2
 [B,,B,]>[B,,F,] [B,,B,]>[B,,B,] [B,,F,]2 [D,B,]>[F,A,] | %3
 B,>B, [G,B,]>[G,B,] [G,B,]<[G,B,] [D,B,]>[F,A,] | B,B,[A,C][C,B,] [F,A,]2 [B,,B,]>[B,,F,] | %5
 [B,,F,]>[B,,F,] [B,,F,]>[B,,F,] [B,,F,]<[B,,F,] [E,G,]>[E,B,] | %6
 [B,,B,]>[B,,F,] [B,,B,]>[B,,B,] [B,,F,]2 [D,B,]>[F,A,] | %7
 B,>B, [G,B,]>[G,B,] [G,B,]<[G,B,] B,>[D,B,] | [F,B,]>[F,B,] [F,B,][B,,F,] [B,,F,]2 || z2 | %10
 (B,2 [F,A,]2) B,[D,B,][E,B,]F, | ([B,,F,][B,,F,][E,G,][E,G,] [B,,F,]2) z2 | %12
 (B,2 [G,B,]2 B,)B, [A,C]>[C,B,] | [F,A,]6 [D,B,]>[C,A,] | %14
 [B,,B,]>[B,,B,] [B,,B,]>[B,,B,] [B,,B,]<[B,,B,] B,>[F,A,] | %15
 [G,B,]>[G,B,] [E,G,]>[E,G,] [B,,G,]<[B,,F,] z2 | (B,2 [G,B,]2 [D,B,])[D,B,] [F,A,]>[B,,F,] | %17
 [B,,F,]6 |] %18
V:4
 x2 | x8 | x8 | B,>B, x6 | B,B, x6 | x8 | x8 | B,>B, x7/2 B,3/2 x | x6 || x2 | B,2 B, x F, x3 | %11
 x8 | B,2 B,B, x4 | x8 | x8 | x8 | B,2 x6 | x6 |] %18

